!!!ONB: MCCC : ICD0036_03 : Extracted Monophonic Melody
!!!COM: Debussy, Claude
!!!OPR: Images (Prèmiere Série)
!!!OMV: 3
!!!SCT: CD 105 ; L.110
!!!ODT: 1904///
**kern
*staff1
*clefG2
*k[]
*C:
*M2/4
8g
=2
4r
8r
8g
=3
4r
8r
8g
=4
4r
8r
8g
=5
24d
24e
24f
24d
24e
24f
24d
24e
24f
24d
24e
24f
=6
24d
24e
24f
24d
24e
24f
24d
24e
24f
24e-
24f#
24a
=7
24d
24e
24f
24d
24e
24f
24d
24e
24f
24d
24e
24f
=8
24d
24e
24f
24d
24e
24f
24d
24e
24f
24e-
24f#
24a
=9
8a
8a
8a
8b
=10
8a
8a
8a
8b
=11
8a
8a
8g
8g
=12
8g
8g
8g
8g
=13
8g
8g
8g
8g
=14
8g
8g
8g
8g
=15
8g
8g
8g
8g
=16
24c
24d
24e-
24c
24d
24e-
24c
24d
24e-
24c
24d
24e-
=17
24c
24d
24e-
24c
24d
24e-
24c
24d
24e-
24c#
24e
24g
=18
24c
24d
24e-
24c
24d
24e-
24c
24d
24e-
24c
24d
24e-
=19
24c
24d
24e-
24c
24d
24e-
24c
24d
24e-
24c#
24e
24g
=20
8g
8g
8g
8a
=21
8g
8g
8g
8a
=22
8g
8g
8g
8a
=23
8g
8g
8g
8a
=24
8g
8a
8g
8a
=25
8g
8a
8g
8a
=26
8g
8gg
8g
8gg
=27
8g
8gg
8g
8gg
=28
8g
8gg
8g
8gg
=29
8g
8gg
8g
8gg
=30
8r
8ggg
12ggg
12fff
12eee
=31
8ddd
8ccc
8ccc
8gg
=32
32g
32g
16g
32g
32g
16g
32g
32g
16g
32g
32g
16g
=33
24g
24g
24g
24g
24g
24g
24g
24g
24g
24g
24g[
24g]
=34
8g
8gg
8g
8gg
=35
8g
8gg
8g
8gg
=36
8g
8gg
8g
8gg
=37
8g
8gg
8g
8gg
=38
8r
8ggg
12ggg
12fff
12eee
=39
8ddd
8ccc
8ccc
8gg
=40
32g
32g
16g
32g
32g
16g
32g
32g
16g
32g
32g
16g
=41
24g
24g
24g
24g
24g
24g
24g
24g
24g
24g
24g[
24g]
=42
24d
24e
24f
24d
24e
24f
24d
24e
24f
24d
24e
24f
=43
24d
24e
24f
24d
24e
24f
24d
24e
24f
24d
24e
24f
=44
24d
24e
24f
24d
24e
24f
24d
24e
24f
24d
24e
24f
=45
24d
24e
24f
24d
24e
24f
24d
24e
24f
24d
24e
24f
=46
24d
24e
24f
24d
24e
24f
24d
24e
24f
24d
24e
24f
=47
24d
24e
24f
24d
24e
24f
24d
24e
24f
24d
24e
24f
=48
24d
24e
24f
24d
24e
24f
24d
24e
24f
24d
24e
24f
=49
24d
24e
24f
24g
24a
24b
24g
24a
24b
24e
24f
24g
=50
24d
24e
24f
24d
24e
24f
24d
24e
24f
24d
24e
24f
=51
24d
24e
24f
24d
24e
24f
24d
24e
24f
8r
=52
24dd
24ee
24ff
8r
24ddd
24eee
24fff
24ggg
24aaa
24bbb
=53
24cccc
24ggg
24ccc
24cccc
24ggg
24ccc
24cccc
24ggg
24ccc
24cccc
24ggg
24ccc
=54
24cccc
24ggg
24ccc
24cccc
24ggg
24ccc
24cccc
24ggg
24ccc
24cccc
24ggg
24ccc
=55
24cccc
24ggg
24ccc
24cccc
24ggg
24ccc
24ggg
24ddd
24gg
24ggg
24ddd
24gg
=56
24ccc
24gg
24cc
24ccc
24gg
24cc
24gg
24dd
24g
24gg
24dd
24g
=57
24ccc
24gg
24cc
24ccc
24gg
24cc
24ccc
24gg
24cc
24ccc
24gg
24cc
=58
24ccc
24gg
24cc
24ccc
24gg
24cc
24ccc
24gg
24cc
24ccc
24gg
24cc
=59
24ccc
24gg
24cc
24ccc
24gg
24cc
24gg
24dd
24g
24gg
24dd
24g
=60
24cc
24g
24c
24cc
24g
24c
24gg
24dd
24g
24gg
24dd
24g
=61
24ccc
24gg
24cc
24ccc
24gg
24cc
24gg
24dd
24g
24gg
24dd
24g
=62
24cc
24g
24c
24cc
24g
24c
24g
24d
24G
24g
24d
24G
=63
24g
24d
24G
24g
24d
24G
24g
24d
24G
24g
24d
24G
=64
24g
24d
24G
24g
24d
24G
24g
24d
24G
24g
24d
24G
=65
24g
24d
24G
24g
24d
24G
24g
24d
24G
24g
24d
24G
=66
24g
24d
24G
24g
24d
24G
24g
24d
24G
24g
24d
24G
=67
24g
24d
24G
24a
24e
24A
24cc
24g
24c
24cc
24g
24c
=68
24cc
24g
24c
24cc
24g
24c
24dd
24a
24d
24dd
24a
24d
=69
24ff
24cc
24f
24gg
24dd
24g
24ee
24b
24e
24ee
24b
24e
=70
24ee
24b
24e
24ee
24b
24e
24dd
24a
24d
24dd
24a
24d
=71
24cc
24g
24c
24dd
24a
24d
24b
24f#
24B
24b
24f#
24B
=72
24b
24f#
24B
24b
24f#
24B
24a
24e
24A
24b
24f#
24f
=73
24g
24d
24G
24g
24d
24G
24g
24d
24G
24g
24d
24G
=74
24g
24d
24G
24g
24d
24G
24g
24d
24G
24g
24d
24G
=75
24g
24d
24G
24a
24e
24A
24cc
24g
24c
24cc
24g
24c
=76
24cc
24g
24c
24cc
24g
24c
24dd
24a
24d
24dd
24a
24d
=77
24ff
24cc
24f
24gg
24dd
24g
24bb
24ff#
24b
24bb
24ff#
24b
=78
24bb
24ff#
24b
24bb
24ff#
24b
24bb
24ff#
24b
24bb
24ff#
24b
=79
24bb
24ff#
24b
24bb
24ff#
24b
24bb
24ff#
24b
24bb
24ff#
24b
=80
24bb
24ff#
24b
24bb
24ff#
24b
24bb
24ff#
24b
24bb
24ff#
24b
=81
24bb
24ff#
24b
24bb
24ff#
24b
24bb
24ff#
24b
24bb
24ff#
24b
=82
24ccc
24gg
24cc
24ccc
24gg
24cc
24ccc
24gg
24cc
24ccc
24gg
24cc
=83
24bb
24ff#
24b
24bb
24ff#
24b
24ccc
24gg
24cc
24ccc
24gg
24cc
=84
24ff
24cc
24f
24ff
24cc
24f
24ff#
24b
24f#
24ff#
24b
24f#
=85
24b-
24f
24B-
24b-
24f
24B-
24b
24f#
24B
24b
24f#
24B
=86
2r
=87
2r
=88
2r
=89
24g
24d
24g
32r
32e
16a
16cc#
16ff#
32ff#
32fff#
16fff#
=90
16ff#
16cc#
32cc#
32cc#[
16cc#]
16ee
16ff#
32ff#
32fff#[
16fff#]
=91
8gg
8aa
12ff#
24ff#
24ff#
24fff#
24ff#
=92
16ff#
16ff#
32ff#
32ff#[
16ff#]
16ee
16ff#
32ff#
32fff#[
16fff#]
=93
8dd
8ee
16cc#
16ff#
32ff#
32fff#
16fff#
=94
24cc#
24ff#
24cc#
24cc#
24cc#[
24cc#]
8b
8cc#
=95
16a
16a
32a
32fff#
16fff#
16ff#
16a
32a
32a[
16a]
=96
4b
8.b[
16b]
=97
8g#
8b-
16cc#
16ff#
32ff#
32fff#
16fff#
=98
16ff#
16cc#
32cc#
32cc#[
16cc#]
16ee
16ff#
32ff#
32fff#[
16fff#]
=99
8gg#
8bb-
12ff#
24ff#
24ff#
24fff#
24ff#
=100
16ff#
16ff#
32ff#
32ff#[
16ff#]
16ee
16ff#
32ff#
32fff#[
16fff#]
=101
8ee-
8ee
16cc#
16ff#
32ff#
32fff#
16fff#
=102
24cc#
24ff#
24cc#
24cc#
24cc#[
24cc#]
8b-[
8b-]
=103
16g#
16g#
32g#
32fff#
16fff#
16ff#
16g#
32g#
32g#
16g#
=104
24g#
24ff#
24g#
8cc#
8b-[
8b-]
=105
16g#
16g#
32g#
32fff#
16fff#
16ff#
16g#
32g#
32g#
16g#
=106
24g#
24ff#
24g#
8cc#
8b-[
8b-]
=107
8g#
8cc
16ee
16ff#
32ff#
32fff#
16fff#
=108
16ff#
16ee
16cc
16ff#
32ff#
32fff#[
16fff#]
8bb-
=109
16gg#
16gg#
32gg#
32fff#
16fff#
16gg#
16gg#
32gg#
32fff#[
16fff#]
=110
16gg#
16gg#
32gg#
32fff#
16fff#
16gg#
16gg#
32gg#
32fff#
16fff#
=111
24gg#
24gg#
24gg#
24gg#
24gg#
24gg#
24gg#
24gg#
24gg#
24gg#
24gg#
24gg#
=112
24gg#
24gg#
24gg#
24gg#
24gg#
24gg#
24gg#
24gg#
24gg#
24gg#
24gg#
24gg#
=113
24gg#
24gg#
24gg#
24gg#
24gg#
24gg#
24gg#
24gg#
24gg#
24gg#
24gg#
24gg#
=114
24gg#
24gg#
24gg#
24gg#
24gg#
24gg#
24gg#
24gg#
24gg#
24gg#
24gg#[
24gg#]
=115
24d
24e
24f
24d
24e
24f
24d
24e
24f
24d
24e
24f
=116
24d
24e
24f
24d
24e
24f
24d
24e
24f
24e-
24f#
24a
=117
24d
24e
24f
24d
24e
24f
24d
24e
24f
24d
24e
24f
=118
24d
24e
24f
24d
24e
24f
24d
24e
24f
24e-
24f#
24a
=119
8a
8a
8a
8b
=120
8a
8a
8a
8b
=121
8a
8a
8g
8g
=122
8g
8g
8g
8g
=123
8g
8g
8g
8g
=124
8g
8g
8g
8g
=125
8g
8g
8g
8g
=126
24c
24d
24e-
24c
24d
24e-
24c
24d
24e-
24c
24d
24e-
=127
24c
24d
24e-
24c
24d
24e-
24c
24d
24e-
24c#
24e
24g
=128
24c
24d
24e-
24c
24d
24e-
24c
24d
24e-
24c
24d
24e-
=129
24c
24d
24e-
24c
24d
24e-
24c
24d
24e-
24c#
24e
24g
=130
8g
8g
8g
8a
=131
8g
8g
8g
8a
=132
8g
8g
8g
8a
=133
8g
8g
8g
8a
=134
8g
8a
8g
8a
=135
8g
8a
8g
8a
=136
8g
8gg
8g
8gg
=137
8g
8gg
8g
8gg
=138
8g
8gg
8g
8gg
=139
8g
8gg
8g
8gg
=140
8r
8ggg
12ggg
12fff
12eee
=141
8ddd
8ccc
8ccc
8gg
=142
32g
32g
16g
32g
32g
16g
32g
32g
16g
32g
32g
16g
=143
24g
24g
24g
24g
24g
24g
24g
24g
24g
24g
24g[
24g]
=144
8g
8gg
8g
8gg
=145
8g
8gg
8g
8gg
=146
8g
8gg
8g
8gg
=147
8g
8gg
8g
8gg
=148
8r
8ggg
12ggg
12fff
12eee
=149
8ddd
8ccc
8ccc
8gg
=150
32g
32g
16g
32g
32g
16g
32g
32g
16g
32g
32g
16g
=151
24g
24g
24g
24g
24g
24g
24g
24g
24g
24g
24g[
24g]
=152
24d
24e
24f
24d
24e
24f
24d
24e
24f
24d
24e
24f
=153
24d
24e
24f
24d
24e
24f
24d
24e
24f
24d
24e
24f
=154
24d
24e
24f
24d
24e
24f
24d
24e
24f
24d
24e
24f
=155
24d
24e
24f
24d
24e
24f
24d
24e
24f
24d
24e
24f
=156
24d
24e
24f#
24d
24e
24f#
24d
24e
24f#
24e
24f#
24g#
=157
24f#
24g#
24b-
24g#
24b-
24cc
24b-
24cc
24dd
24cc
24dd
24ee
=158
24dd
24ee
24ff#
24ee
24ff#
24gg#
24ff#
24gg#
24bb-
24gg#
24bb-
24ccc
=159
24bb-
24ccc
24ddd
24ccc
24ddd
24eee
24ddd
24eee
24fff#
24eee
24fff#
24ggg#
=160
24fff#
24ggg#
24bbb-
24fff#
24ggg#
24bbb-
24fff#
24ggg#
24bbb-
24fff#
24ggg#
24bbb-
=161
24fff#
24ggg#
24bbb-
24fff#
24ggg#
24bbb-
24fff#
24ggg#
24bbb-
24fff#
24ggg#
24bbb-
=162
24fff#
24ggg#
24bbb-
24fff#
24ggg#
24bbb-
24fff#
24ggg#
24bbb-
24fff#
24ggg#
24bbb-
=163
24fff#
24ggg#
24bbb-
24fff#
24ggg#
24bbb-
24fff#
24ggg#
24bbb-
24fff#
24ggg#
24bbb-
=164
24fff#
24ggg#
24bbb-
24fff#
24ggg#
24bbb-
24fff#
24ggg#
24bbb-
24fff#
24ggg#
24bbb-
=165
24fff#
24ggg#
24bbb-
24fff#
24ggg#
24bbb-
24fff#
24ggg#
24bbb-
24fff#
24ggg#
24bbb-
=166
24ggg#
24bbb-
24cccc
24ggg#
24bbb-
24cccc
24bbb-
24cccc
24dddd
24bbb-
24cccc
24dddd
=167
24cccc
24dddd
24eeee
24cccc
24dddd
24eeee
24cccc
24dddd
24eeee
24cccc
24dddd
24eeee
=168
24cccc
24dddd
24eeee
24cccc
24dddd
24eeee
24cccc
24dddd
24eeee
24cccc
24dddd
24eeee
=169
24cccc
24dddd
24eeee
24cccc
24dddd
24eeee
24cccc
24dddd
24eeee
24cccc
24dddd
24eeee
=170
24cccc
24dddd
24eeee
24cccc
24dddd
24eeee
24cccc
24dddd
24eeee
24cccc
24dddd
24eeee
=171
24cccc
24dddd
24eeee
24cccc
24dddd
24eeee
24cccc
24dddd
24eeee
24cccc
24dddd
24eeee
=172
24cccc
24dddd
24eeee
24cccc
24dddd
24eeee
24cccc
24dddd
24eeee
24cccc
24dddd
24eeee
=173
24cccc
24dddd
24eeee
24cccc
24dddd
24eeee
24cccc
24dddd
24eeee
24cccc
24dddd
24eeee
=174
24cccc
24dddd
24eeee
24cccc
24dddd
24eeee
24cccc
24dddd
24eeee
24cccc
24dddd
24eeee
=175
24cccc
24dddd
24eeee
24cccc
24dddd
24eeee
24cccc
24dddd
24eeee
24cccc
24dddd
24eeee
=176
24cccc
24dddd
24eeee
24cccc
24dddd
24eeee
24cccc
24dddd
24eeee
24cccc
24dddd
24eeee[
=177
4eeee]
4r
==
*-
